resources/dark/push.svg

<?xml version="1.0" encoding="iso-8859-1"?>
<!-- Uploaded to: SVG Repo, www.svgrepo.com, Generator: SVG Repo Mixer Tools -->
<svg fill="#000000" height="800px" width="800px" version="1.1" id="Layer_1" xmlns="http://www.w3.org/2000/svg" xmlns:xlink="http://www.w3.org/1999/xlink" 
	 viewBox="0 0 512 512" xml:space="preserve">
<g transform="translate(-1)">
	<g>
		<g>
			<path d="M402.067,179.2l-128-170.667c-8.533-11.378-25.6-11.378-34.133,0l-128,170.667
				c-10.548,14.064-0.513,34.133,17.067,34.133h64v85.333c0,11.782,9.551,21.333,21.333,21.333h85.333
				c11.782,0,21.333-9.551,21.333-21.333v-85.333h64C402.58,213.333,412.614,193.264,402.067,179.2z M299.667,170.667
				c-11.782,0-21.333,9.551-21.333,21.333v85.333h-42.667V192c0-11.782-9.551-21.333-21.333-21.333h-42.667L257,56.889
				l85.333,113.778H299.667z"/>
			<path d="M299.667,341.333h-85.333c-11.782,0-21.333,9.551-21.333,21.333S202.551,384,214.333,384h85.333
				c11.782,0,21.333-9.551,21.333-21.333S311.449,341.333,299.667,341.333z"/>
			<path d="M299.667,405.333h-85.333c-11.782,0-21.333,9.551-21.333,21.333S202.551,448,214.333,448h85.333
				c11.782,0,21.333-9.551,21.333-21.333S311.449,405.333,299.667,405.333z"/>
			<path d="M299.667,469.333h-85.333c-11.782,0-21.333,9.551-21.333,21.333S202.551,512,214.333,512h85.333
				c11.782,0,21.333-9.551,21.333-21.333S311.449,469.333,299.667,469.333z"/>
		</g>
	</g>
</g>
</svg>

<?xml version="1.0" encoding="UTF-8" standalone="no"?>
<!-- Created with Pixodesk SVG (https://pixodesk.com) -->
<svg xmlns="http://www.w3.org/2000/svg" viewBox="0 0 512 512" text-rendering="geometricPrecision" shape-rendering="geometricPrecision" fill="#000000">
  <g fill="#ffffff" transform="translate(-1, -1)">
    <g>
      <g>
        <path d="M402.067,179.2L274.067,8.533C265.534,-2.845,248.467,-2.845,239.934,8.533L111.934,179.2C101.386,193.264,111.421,213.333,129.001,213.333L193.001,213.333L193.001,298.666C193.001,310.448,202.552,319.999,214.334,319.999L299.667,319.999C311.449,319.999,321,310.448,321,298.666L321,213.333L385,213.333C402.58,213.333,412.614,193.264,402.067,179.2zM299.667,170.667C287.885,170.667,278.334,180.218,278.334,192L278.334,277.333L235.667,277.333L235.667,192C235.667,180.218,226.116,170.667,214.334,170.667L171.667,170.667L257,56.889L342.333,170.667L299.667,170.667z"/>
        <path d="M299.667,341.333L214.334,341.333C202.552,341.333,193.001,350.884,193.001,362.666C193.001,374.448,202.551,384,214.333,384L299.666,384C311.448,384,320.999,374.449,320.999,362.667C320.999,350.885,311.449,341.333,299.667,341.333z"/>
        <path d="M299.667,405.333L214.334,405.333C202.552,405.333,193.001,414.884,193.001,426.666C193.001,438.448,202.551,448,214.333,448L299.666,448C311.448,448,320.999,438.449,320.999,426.667C320.999,414.885,311.449,405.333,299.667,405.333z"/>
        <path d="M299.667,469.333L214.334,469.333C202.552,469.333,193.001,478.884,193.001,490.666C193.001,502.448,202.551,512,214.333,512L299.666,512C311.448,512,320.999,502.449,320.999,490.667C320.999,478.885,311.449,469.333,299.667,469.333z"/>
      </g>
    </g>
  </g>
</svg>
